images/Confetti.svg

<svg width="80" height="80" viewBox="0 0 80 80" fill="none" xmlns="http://www.w3.org/2000/svg">
<circle cx="40" cy="40" r="40" fill="#B71D49" fill-opacity="0.1"/>
<path d="M39.9522 37.4627C36.0782 33.5892 31.8303 31.5565 30.4639 32.9224C30.3139 33.0795 30.2036 33.27 30.142 33.4782L30.12 33.4562L28.815 38.8041L27.5155 44.1361L25.9751 50.4496L25 54.4481L30.7733 52.2634L38.1164 49.485L43.9746 47.2683L43.9676 47.2614C44.1637 47.1988 44.3432 47.0927 44.4924 46.951C45.8589 45.5845 43.8262 41.3367 39.9522 37.4627Z" fill="#DD1C4B"/>
<path d="M39.9522 37.4611C36.0783 33.5872 31.8303 31.5545 30.4641 32.9208C29.0978 34.2871 31.1305 38.535 35.0044 42.4089C38.8782 46.2827 43.1262 48.3155 44.4925 46.9492C45.8588 45.5829 43.826 41.3349 39.9522 37.4611Z" fill="#D1E3EE"/>
<path d="M43.4428 47.4412C42.7434 47.4534 42.0494 47.3157 41.4076 47.0374L36.6195 48.8491L29.2738 51.6251L25.3349 53.1155L25 54.4885L30.7733 52.3038L38.1164 49.5254L43.4928 47.4912L43.4428 47.4412Z" fill="#B21D48"/>
<path d="M49.4905 43.4929C49.4306 43.4927 49.3713 43.482 49.315 43.4614C46.7777 42.5109 44.035 42.2443 41.3621 42.6887L39.5768 42.9861C39.3036 43.0251 39.0504 42.8352 39.0114 42.5619C38.9737 42.2979 39.15 42.0508 39.4119 42.0005L41.1977 41.7006C44.0437 41.2277 46.964 41.5113 49.6659 42.5228C49.9257 42.6161 50.0606 42.9024 49.9672 43.1622C49.8951 43.3628 49.7037 43.4957 49.4905 43.4929Z" fill="#FFBF41"/>
<path d="M40.4939 40.4939C40.2179 40.4923 39.9955 40.2672 39.9971 39.9912C39.9982 39.8006 40.1075 39.6273 40.279 39.5443L50.775 34.5462C51.0242 34.4275 51.3225 34.5334 51.4412 34.7826C51.5599 35.0319 51.4541 35.3302 51.2048 35.4489L40.7089 40.4469C40.6416 40.4784 40.5682 40.4944 40.4939 40.4939Z" fill="#FFBF41"/>
<path d="M34.6493 39.4943C34.5833 39.4944 34.5181 39.4814 34.4573 39.4558C34.2026 39.3496 34.0822 39.0569 34.1884 38.8021V38.8021L34.9152 37.0583C36.0333 34.3865 36.294 31.4334 35.6614 28.607C35.5965 28.3387 35.7615 28.0687 36.0298 28.0038C36.2981 27.939 36.5681 28.104 36.633 28.3723C36.6344 28.3782 36.6357 28.3841 36.637 28.3901C37.3147 31.4178 37.0353 34.5812 35.8373 37.4431L35.1101 39.1869C35.0325 39.3729 34.8508 39.4941 34.6493 39.4943Z" fill="#FFBF41"/>
<path d="M51.9895 45.4921C52.5416 45.4921 52.9891 45.0446 52.9891 44.4925C52.9891 43.9405 52.5416 43.4929 51.9895 43.4929C51.4374 43.4929 50.9899 43.9405 50.9899 44.4925C50.9899 45.0446 51.4374 45.4921 51.9895 45.4921Z" fill="#D5557E"/>
<path d="M39.9942 31.4975C40.5462 31.4975 40.9938 31.05 40.9938 30.4979C40.9938 29.9458 40.5462 29.4983 39.9942 29.4983C39.4421 29.4983 38.9946 29.9458 38.9946 30.4979C38.9946 31.05 39.4421 31.4975 39.9942 31.4975Z" fill="#DD95C1"/>
<path d="M35.4959 26.9992C34.9438 26.9992 34.4963 26.5517 34.4963 25.9996C34.4963 25.4475 34.9438 25 35.4959 25C36.048 25 36.4955 25.4475 36.4955 25.9996C36.4955 26.5517 36.048 26.9992 35.4959 26.9992Z" fill="#7FCCCB"/>
<path d="M49.4905 28.9984C49.2145 28.9984 48.9907 28.7747 48.9907 28.4986V27.9988C48.9907 27.7228 49.2145 27.499 49.4905 27.499C49.7665 27.499 49.9903 27.7228 49.9903 27.9988V28.4986C49.9903 28.7747 49.7666 28.9984 49.4905 28.9984Z" fill="#2276BB"/>
<path d="M49.4905 26.4994C49.2145 26.4994 48.9907 26.2756 48.9907 25.9996V25.4998C48.9907 25.2238 49.2145 25 49.4905 25C49.7665 25 49.9903 25.2238 49.9903 25.4998V25.9996C49.9903 26.2756 49.7666 26.4994 49.4905 26.4994Z" fill="#2276BB"/>
<path d="M50.9899 27.4991H50.4901C50.2141 27.4991 49.9903 27.2753 49.9903 26.9993C49.9903 26.7233 50.2141 26.4995 50.4901 26.4995H50.9899C51.266 26.4995 51.4897 26.7233 51.4897 26.9993C51.4897 27.2753 51.266 27.4991 50.9899 27.4991Z" fill="#2276BB"/>
<path d="M48.4909 27.4991H47.9911C47.7151 27.4991 47.4913 27.2753 47.4913 26.9993C47.4913 26.7233 47.7151 26.4995 47.9911 26.4995H48.4909C48.7669 26.4995 48.9907 26.7233 48.9907 26.9993C48.9907 27.2753 48.767 27.4991 48.4909 27.4991Z" fill="#2276BB"/>
<path d="M28.9675 39.4945C28.9115 39.2806 28.8615 39.0646 28.815 38.8447L27.5155 44.1767L27.6155 45.3957C27.8333 47.9946 28.9498 50.4364 30.7728 52.3015L38.1164 49.5256C38.0764 49.5131 38.0349 49.5041 37.995 49.4906C33.542 47.8209 30.1762 44.094 28.9675 39.4945Z" fill="white"/>
<path d="M38.1164 49.5254C38.0764 49.5129 38.0349 49.5039 37.9949 49.4904C37.5139 49.3083 37.0427 49.1009 36.5835 48.8691L29.9691 51.3717C30.2198 51.6969 30.4883 52.0081 30.7732 52.3038L38.1164 49.5254Z" fill="#F6F6E7"/>
<path d="M45.9918 30.9871V33.4966H43.4823V30.9871H45.9918Z" fill="#C9DA53"/>
<path d="M36.9953 39.9942C36.7193 39.9941 36.4956 39.7703 36.4957 39.4943C36.4957 39.3527 36.5558 39.2178 36.661 39.123L41.659 34.6248C41.8678 34.4442 42.1834 34.467 42.364 34.6757C42.5396 34.8786 42.5236 35.184 42.3278 35.3675L37.3297 39.8657C37.238 39.9484 37.1189 39.9941 36.9953 39.9942Z" fill="#FFBF41"/>
<path d="M51.4897 37.995C51.2137 37.995 50.9899 37.7712 50.9899 37.4952V36.9954C50.9899 36.7194 51.2137 36.4956 51.4897 36.4956C51.7657 36.4956 51.9895 36.7194 51.9895 36.9954V37.4952C51.9895 37.7712 51.7658 37.995 51.4897 37.995Z" fill="#FFDB43"/>
<path d="M53.257 37.2628C53.1244 37.2632 52.9971 37.2105 52.9036 37.1164L52.5503 36.763C52.3585 36.5645 52.364 36.248 52.5625 36.0563C52.7562 35.8693 53.0633 35.8693 53.257 36.0563L53.6104 36.4097C53.8055 36.6049 53.8055 36.9213 53.6102 37.1165C53.5166 37.2102 53.3895 37.2628 53.257 37.2628Z" fill="#FFDB43"/>
<path d="M53.9887 35.4959H53.4889C53.2129 35.4959 52.9891 35.2722 52.9891 34.9961C52.9891 34.7201 53.2129 34.4963 53.4889 34.4963H53.9887C54.2647 34.4963 54.4885 34.7201 54.4885 34.9961C54.4885 35.2722 54.2648 35.4959 53.9887 35.4959Z" fill="#FFDB43"/>
<path d="M52.9036 34.0825C52.6276 34.0824 52.4039 33.8586 52.404 33.5825C52.404 33.45 52.4566 33.3229 52.5503 33.2293L52.9036 32.8759C53.1022 32.6841 53.4186 32.6896 53.6104 32.8882C53.7974 33.0818 53.7974 33.3889 53.6104 33.5827L53.257 33.936C53.1633 34.0297 53.0362 34.0825 52.9036 34.0825Z" fill="#FFDB43"/>
<path d="M51.4897 33.4967C51.2137 33.4967 50.9899 33.2729 50.9899 32.9969V32.4971C50.9899 32.2211 51.2137 31.9973 51.4897 31.9973C51.7657 31.9973 51.9895 32.2211 51.9895 32.4971V32.9969C51.9895 33.2729 51.7658 33.4967 51.4897 33.4967Z" fill="#FFDB43"/>
<path d="M50.0757 34.0824C49.9432 34.0824 49.8161 34.0297 49.7224 33.936L49.369 33.5826C49.1773 33.3841 49.1827 33.0676 49.3813 32.8759C49.5749 32.6888 49.882 32.6888 50.0757 32.8759L50.4291 33.2292C50.6243 33.4245 50.6242 33.7409 50.429 33.9361C50.3353 34.0297 50.2082 34.0824 50.0757 34.0824Z" fill="#FFDB43"/>
<path d="M27.499 25.4998L28.2712 27.0646L29.9981 27.3155L28.7485 28.5336L29.0434 30.2534L27.499 29.4412L25.9546 30.2534L26.2495 28.5336L25 27.3155L26.7268 27.0646L27.499 25.4998Z" fill="#FFDB43"/>
<path d="M54.3306 52.0726C54.0929 51.2301 53.5455 50.5087 52.7982 50.0528L52.5923 49.744C51.4376 48.0173 49.622 46.8433 47.5737 46.4987C47.3004 46.4597 47.0473 46.6497 47.0083 46.9229C46.9706 47.187 47.1469 47.434 47.4088 47.4843C48.8862 47.7351 50.2326 48.4857 51.2228 49.6105C50.3903 49.7603 49.6622 50.2603 49.2236 50.9835C48.6853 51.9475 49.0305 53.1654 49.9945 53.7037C50.9586 54.242 52.1764 53.8968 52.7147 52.9327C52.9203 52.5358 53.0313 52.0967 53.0391 51.6497C53.5709 52.4221 53.6134 53.4308 53.1485 54.2452C53.0077 54.4826 53.086 54.7893 53.3234 54.9301C53.5608 55.0709 53.8674 54.9926 54.0083 54.7552C54.0128 54.7476 54.0171 54.7399 54.0212 54.732C54.4753 53.9224 54.5867 52.9648 54.3306 52.0726ZM51.843 52.4449C51.5763 52.9283 50.9682 53.1038 50.4849 52.8371C50.0015 52.5703 49.826 51.9622 50.0927 51.4789C50.0942 51.4762 50.0957 51.4735 50.0972 51.4708C50.3922 50.9879 50.8897 50.6641 51.4507 50.5901C51.5376 50.5878 51.6236 50.6078 51.7006 50.6481C52.1224 50.8835 52.1449 51.9041 51.843 52.4449Z" fill="#2BB3CE"/>
</svg>

<svg xmlns="http://www.w3.org/2000/svg" xmlns:xlink="http://www.w3.org/1999/xlink" width="80" height="80" fill="none" xmlns:v="https://vecta.io/nano"><circle cx="40" cy="40" r="40" fill="#b71d49" fill-opacity=".1"/><path d="M39.952 37.463c-3.874-3.873-8.122-5.906-9.488-4.54-.15.157-.26.348-.322.556l-.022-.022L25 54.448l18.975-7.18c.189-.07.369-.176.518-.317 1.366-1.367-.666-5.614-4.54-9.488z" fill="#dd1c4b"/><path d="M39.952 37.461c-3.874-3.874-8.122-5.907-9.488-4.54s.666 5.614 4.54 9.488 8.122 5.907 9.488 4.54-.666-5.614-4.54-9.488z" fill="#d1e3ee"/><path d="M43.443 47.441a4.9 4.9 0 0 1-2.035-.404l-16.073 6.078L25 54.489l18.493-6.997-.05-.05z" fill="#b21d48"/><path d="M49.491 43.493c-.06 0-.119-.011-.175-.032a15.45 15.45 0 0 0-7.953-.773l-1.785.297a.5.5 0 0 1-.565-.424.5.5 0 0 1 .401-.561l1.786-.3a16.46 16.46 0 0 1 8.468.822.5.5 0 0 1-.175.97zm-8.997-2.999a.5.5 0 0 1-.215-.95l10.496-4.998a.5.5 0 0 1 .666.236.5.5 0 0 1-.236.666l-10.496 4.998a.5.5 0 0 1-.215.047zm-5.845-1a.49.49 0 0 1-.192-.038.5.5 0 0 1-.269-.654h0l.727-1.744a13.98 13.98 0 0 0 .746-8.451.5.5 0 0 1 .368-.603.5.5 0 0 1 .603.369 14.99 14.99 0 0 1-.796 9.071l-.727 1.744a.5.5 0 0 1-.461.307z" fill="#ffbf41"/><path d="M51.99 45.492a1 1 0 0 0 1-1 1 1 0 0 0-1-1 1 1 0 0 0-1 1 1 1 0 0 0 1 1z" fill="#d5557e"/><path d="M39.994 31.498a1 1 0 0 0 1-1 1 1 0 0 0-1-1 1 1 0 0 0-1 1 1 1 0 0 0 1 1z" fill="#dd95c1"/><path d="M35.496 26.999a1 1 0 0 1-1-1 1 1 0 0 1 1-1 1 1 0 0 1 1 1 1 1 0 0 1-1 1z" fill="#7fcccb"/><g fill="#2276bb"><use xlink:href="#B"/><use xlink:href="#B" y="-2.499"/><use xlink:href="#C"/><use xlink:href="#C" x="-2.499"/></g><path d="M28.968 39.495l-.152-.65-1.3 5.332.1 1.219a11.22 11.22 0 0 0 3.157 6.906l7.344-2.776-.121-.035c-4.453-1.67-7.819-5.397-9.027-9.996z" fill="#fff"/><path d="M38.116 49.525l-.121-.035c-.481-.182-.952-.389-1.411-.621l-6.614 2.503c.251.325.519.636.804.932l7.343-2.778z" fill="#f6f6e7"/><path d="M45.992 30.987v2.509h-2.509v-2.509h2.509z" fill="#c9da53"/><path d="M36.995 39.994a.5.5 0 0 1-.334-.871l4.998-4.498a.5.5 0 0 1 .669.743l-4.998 4.498a.5.5 0 0 1-.334.129z" fill="#ffbf41"/><g fill="#ffdb43"><use xlink:href="#B" x="1.999" y="8.997"/><path d="M53.257 37.263c-.133 0-.26-.052-.353-.146l-.353-.353a.5.5 0 0 1 .707-.707l.353.353a.5.5 0 0 1-.353.853z"/><use xlink:href="#C" x="2.999" y="7.997"/><path d="M52.904 34.083a.5.5 0 0 1-.353-.853l.353-.353a.5.5 0 0 1 .707.707l-.353.353a.5.5 0 0 1-.353.147z"/><use xlink:href="#B" x="1.999" y="4.499"/><path d="M50.076 34.082a.5.5 0 0 1-.353-.146l-.353-.353a.5.5 0 0 1 .707-.707l.353.353a.5.5 0 0 1-.353.853zM27.499 25.5l.772 1.565 1.727.251-1.25 1.218.295 1.72-1.544-.812-1.544.812.295-1.72L25 27.316l1.727-.251.772-1.565z"/></g><path d="M54.331 52.073a3.47 3.47 0 0 0-1.532-2.02l-.206-.309c-1.155-1.727-2.97-2.901-5.019-3.245a.5.5 0 0 0-.565.424.5.5 0 0 0 .401.561 6.54 6.54 0 0 1 3.814 2.126 2.95 2.95 0 0 0-1.999 1.373 2 2 0 0 0 .771 2.72 2 2 0 0 0 2.72-.771 2.9 2.9 0 0 0 .324-1.283 2.44 2.44 0 0 1 .109 2.595.5.5 0 0 0 .175.685.5.5 0 0 0 .685-.175l.013-.023c.454-.81.566-1.767.309-2.659zm-2.488.372a1 1 0 0 1-1.358.392 1 1 0 0 1-.392-1.358c.3-.491.797-.815 1.358-.889a.51.51 0 0 1 .25.058c.422.235.444 1.256.142 1.797z" fill="#2bb3ce"/><defs ><path id="B" d="M49.491 28.998a.5.5 0 0 1-.5-.5v-.5a.5.5 0 0 1 .5-.5.5.5 0 0 1 .5.5v.5a.5.5 0 0 1-.5.5z"/><path id="C" d="M50.99 27.499h-.5a.5.5 0 0 1-.5-.5.5.5 0 0 1 .5-.5h.5a.5.5 0 0 1 .5.5.5.5 0 0 1-.5.5z"/></defs></svg>
